assets/imgs/search.svg

<svg fill="none" height="25" viewBox="0 0 24 25" width="24" xmlns="http://www.w3.org/2000/svg"><path d="m9.5 16.3369c-1.81667 0-3.354-.6293-4.612-1.888s-1.88733-2.796-1.888-4.61199c0-1.81666.62933-3.354 1.888-4.612s2.796-1.88733 4.612-1.888c1.8167 0 3.354.62934 4.612 1.888 1.258 1.25867 1.8873 2.796 1.888 4.612 0 .73329-.1167 1.42499-.35 2.07499s-.55 1.225-.95 1.725l5.6 5.6c.1833.1833.275.4167.275.7s-.0917.5167-.275.7-.4167.275-.7.275-.5167-.0917-.7-.275l-5.6-5.6c-.5.4-1.075.7167-1.725.95s-1.3417.35-2.075.35zm0-2c1.25 0 2.3127-.4377 3.188-1.313s1.3127-1.9377 1.312-3.18699c0-1.25-.4377-2.31266-1.313-3.188-.8753-.87533-1.9377-1.31266-3.187-1.312-1.25 0-2.31267.43767-3.188 1.313-.87533.87534-1.31267 1.93767-1.312 3.187 0 1.24999.43767 2.31269 1.313 3.18799s1.93767 1.3127 3.187 1.312z" fill="#333"/></svg>

<svg width="24" height="25" viewBox="0 0 24 25" fill="none" xmlns="http://www.w3.org/2000/svg">
<path d="M9.5 16.3369C7.68333 16.3369 6.146 15.7076 4.888 14.4489C3.63 13.1902 3.00067 11.6529 3 9.83691C3 8.02025 3.62933 6.48291 4.888 5.22491C6.14667 3.96691 7.684 3.33758 9.5 3.33691C11.3167 3.33691 12.854 3.96625 14.112 5.22491C15.37 6.48358 15.9993 8.02091 16 9.83691C16 10.5702 15.8833 11.2619 15.65 11.9119C15.4167 12.5619 15.1 13.1369 14.7 13.6369L20.3 19.2369C20.4833 19.4202 20.575 19.6536 20.575 19.9369C20.575 20.2202 20.4833 20.4536 20.3 20.6369C20.1167 20.8202 19.8833 20.9119 19.6 20.9119C19.3167 20.9119 19.0833 20.8202 18.9 20.6369L13.3 15.0369C12.8 15.4369 12.225 15.7536 11.575 15.9869C10.925 16.2202 10.2333 16.3369 9.5 16.3369ZM9.5 14.3369C10.75 14.3369 11.8127 13.8992 12.688 13.0239C13.5633 12.1486 14.0007 11.0862 14 9.83691C14 8.58691 13.5623 7.52425 12.687 6.64891C11.8117 5.77358 10.7493 5.33625 9.5 5.33691C8.25 5.33691 7.18733 5.77458 6.312 6.64991C5.43667 7.52525 4.99933 8.58758 5 9.83691C5 11.0869 5.43767 12.1496 6.313 13.0249C7.18833 13.9002 8.25067 14.3376 9.5 14.3369Z" fill="#333333"/>
</svg>
